X:1
T:O, Fu' Will I Get Hame
M:2/4
L:1/8
K:D
 B3/2 e/2 ee| d3/2 e/2d/2 A3/2| B3/2 e/2 e3/2 f/2| d3/2 c/2 B3/2 B/2|\
 B3/2 g/2g/2 g3/2| d3/2 A/2 A3/2 A/2| B2 d3/2 B/2| A3/2 F/2 E2| B2 E3/2 E/2|\
 G3/2 F/2 ED| B2 d3/2 B/2| A3/2 F/2 E2|
